X: 21
T: Boys My Money's all Gone [1]
B: canberra pickers and fiddlers
B: tunes
M:4/4
L:1/8
Q: 1/4=100
K:Amixolydian
V:1 
[e2]-|"A"[e1] gaa abaf|efab a3f|"*""E"efgf +slide+g2 gf|edc(d [e3d3])f|
"A"abaf efgf|edc(d [e3d3])(B|c)BAc B2^G2| "E"[AA]^G[AA]"A"B [A2A2]:|
|:"A"ECEF A2A2|EFA(B cB)A2|E"G"GGA G3F|"**"E2GG- GFED|
"A"EFAB A4-|ABcd e2ef|gfed c2A2|"E"EFAB "A"A4:|]
"*"efgf gagf||"**"EFG(A GF)ED|EFA2 A4||
% abcbook-tune_id 63ae8f1cafdcdda7ed6c55ab
% abcbook-tune_composer_id 
% abcbook-link-0 https://www.youtube.com/watch?v=SxsaYo3-5uU
% abcbook-link-title-0 Boys, My Money&#39;s All Gone
% abcbook-boost 10
% abcbook-difficulty 0
% abcbook-tags canberra pickers and fiddlers,old time tunes,© free
% abcbook-tablature 
% abcbook-transpose 
% abcbook-tuning AEAE
% abcbook-lastupdated 1701213473650
% abcbook-src-url https://tunebook.net/scrape/tunes.abc
% abcbook-soundfonts 
% abcbook-repeats 1


